X:1
T:O Sole Mio   [G]
T:O Sole Mio   [G]
T:music: Eduardo di Capua 1898
C:music: Eduardo di Capua 1898
L:1/8
M:4/4
K:G
V:1 treble 
V:1
|:"G" z2 d2 c2 B2 | A4 G4 | G2 A2 B2 G2 |"Am" F4 E4- | E2 F2 G2 A2 |"D7" F2 E2 E4- | E2 F2 G2 A2 | %7
"G" E2 D2 D4 |"G" z2 d2 c2 B2 | A4 G4 | G2 A2 B2 G2 |"Am"{G} F4 E4- | E2 c2 B2 A2 | %13
"G" d2 B2 A2 G2 |"D7" A6"^rit..." B2 |"G" A2{BA} G6 || x8 | %17
 z2 !fermata!g2 !fermata!g2 !fermata!f2 |"G"{f} d4 d4- | d2 f2 f2 e2 |"Am"{e} c8- | c2 f2 f2 e2 | %22
"Am"{e} c4 c4- |"D7" c2 A2 B2 c2 |"G" d8 | z4 z2 d2 |"Cm" _e8- | e2 c2 g3 _e |"G" d4 d4- | %29
 d2 B2 A2 G2 |"D7" d8 | z2 B2{AB} A3 F |"G" G8 :| x8 |33 z2 B2 A2 G2 |"D7" d8 | z2 d2 [db]3 [ca] | %37
"G" [Bg]8 |] %38

